icons/glyphs/glyph-sage.svg

<?xml version="1.0" encoding="UTF-8" standalone="no"?><svg height="16" viewBox="0 0 4.2333332 4.2333332" width="16" xmlns="http://www.w3.org/2000/svg"><sodipodi:namedview/><metadata><rdf:RDF><cc:Work><dc:format>image/svg+xml</dc:format><dc:type/><dc:title/></cc:Work></rdf:RDF></metadata><path d="m1.4252911-.0000018c-.088233 0-.1595481.070923-.1595481.1584947 0 .03445.013107.066024.03191.09203l-.39887229.4550333c-.0159403-.0042-.0305908-.010225-.0478629-.010225-.10729892 0-.19677712.087786-.19677712.1942827 0 .00404.005077.00627.005323.010225l-.35100288.2300723c-.0258738-.017907-.0564793-.030676-.0904111-.030676-.088231 0-.15954813.070921-.15954813.1584946 0 .053386.0283959.099081.069137.1278176l-.0638193 1.1861533c-.03888.021094-.06381929.065402-.06381929.1124799 0 .068649.0584755.1227066.1276385.1227066.003663 0 .007066.0003257.0106322 0l .87219691.8845013c-.0000781.00179 0 .0033 0 .00511 0 .068649.053156.1278176.1223192.1278176.024535 0 .049819-.00835.069137-.020452l.4786459.2505242c-.0009784.00713-.00532.013058-.00532.020452 0 .087573.071317.1584947.1595481.1584947.082605 0 .1459037-.063349.1542288-.1431586l1.2763808-.3732247c.02899.040101.079435.066465.1329562.066465.088229 0 .1595481-.07092.1595481-.1584947 0-.037024-.015793-.070156-.037226-.097142l.5530994-1.2117159c.088228 0 .1595481-.070921.1595481-.1584946 0-.076838-.054537-.1388324-.1276385-.1533821l-.1755045-.5777387c.027533-.0228.047866-.053654.047866-.09203 0-.068645-.058479-.1227051-.1276385-.1227051-.0059 0-.010274.00433-.015956.00511l-.8030588-.9714153c.00114-.00663.00531-.013531.00531-.02045 0-.068649-.058477-.1227067-.1276385-.1227067-.041187 0-.072905.020667-.095729.051128l-1.2391579-.0460141c-.0217854-.0618507-.0791634-.1073673-.148911-.1073673zm.1489111.2147346 1.2178834.046013c.00801.027766.024594.050325.047865.066467l-.03191.1380444c-.0569923.0132209-.1022402.0514073-.1276386.1022546l-1.3614768.1636056.0904111-.4192424c.00599.0006511.00977.00511.015956.00511.06796 0 .1258263-.04288.1489111-.1022563zm1.3880686.1227051.7817842.9458554c-.00819.016526-.015956.031459-.015956.051126 0 .034326.014556.064423.037229.086919l-.0638197.1789443-.6807376-.8589384c.014947-.027324.026592-.058749.026592-.09203 0-.083359-.053026-.1520274-.1276385-.1789449l.02659-.1278176c.00549-.00177.010844-.00262.015956-.00511zm-1.6167553.025564-.085092.3732293-.26059474.030677c-.001465-.00189-.003698-.00329-.005311-.00511l.35100754-.3987958zm1.3402058.4243571-.3935526 1.5235926c-.012325.00278-.025695.00565-.037227.010225l-1.0104728-1.140138.4733266-.0511258c.021253.038588.064251.066465.1116837.066465.069161 0 .1223207-.059171.1223207-.1278192 0-.00948-.00329-.016679-.00532-.025564l.680738-.2505211.0585-.00511zm-.292506.030675-.4733266.1738341c-.022969-.027329-.05175-.046015-.09041-.046015-.069163 0-.1276385.054058-.1276385.1227034 0 .00169-.0000635.00347 0 .00511l-.4680068.0562447.0372273-.1840592 1.1221546-.1278192zm.5052363.0255633.7392391.9407429-.1542304.4294692-.9253775.2147363c-.013661-.02497-.031861-.042724-.053184-.061354zm-1.6912101.1124799-.0319096.1482711-.1170031-.1329318.1489127-.0153377zm-.50523625.051129c.009444.011365.0201213.021722.0319114.030677l-.026592.1482679-.33505103.040902c-.00032564-.00169.00032564-.00345 0-.00511zm.13827559.071578c.003612.0001628.006969 0 .010632 0 .003661 0 .007034.0001628.010632 0l .0744567.081802-.11168532.015338.0159565-.097142zm.14359332.1329314.13827564.1533805-.0638209.2811997c-.0665335.00295-.11700145.055943-.11700145.1227067 0 .03873.0198887.069233.0478647.09203l-.42014312.6339783.24463988-1.2628449zm-.28718664.030677-.26591245 1.375323c-.047148.00938-.0841572.041081-.10636758.081803l-.0744531-.015338c0-.051486-.0295097-.098723-.0744563-.1175925l.0638176-1.1554775c.0706545-.00964.12324233-.062802.13295785-.1329302l.32441396-.03579zm.46800888.178945.9466517 1.0583337c-.00182.00661-.00407.013628-.00532.020451l-1.53166313.1636086c-.009883-.00982-.0197029-.01858-.0319096-.025564l.48927833-.7515719c.010486.00283.020519.00511.03191.00511.069161 0 .1276385-.054057.1276385-.122705 0-.049083-.032838-.092279-.074456-.1124815l.047864-.2351833zm2.6484972.030675c.00332.0009785.00721-.0008123.010632 0l .1435952.4908223-.223369-.2914265.069137-.1993953zm-.1382756.3834549.2233674.2811998-.3510058.0818044zm.2393222.4396944-.5052362 1.0992376.010632-.6851061c.053394-.010844.095729-.056276.095729-.1124798 0-.045571-.030685-.083179-.069137-.1022531l.037228-.097144.43078-.1022547zm-.4892814.1175941-.02659.066465c-.064717 0-.1170031.053361-.1170031.1175925 0 .053653.035321.099057.085092.1124798l-.015956.7822482c-.039022.011935-.070474.042166-.09041.076692l-.6966928-.1533837c0-.068645-.058479-.122705-.1276401-.122705-.067331 0-.1247777.051463-.1276385.117594l-.1701852.0409006.2127303-.6442038c.1163729-.0025726.2137967-.0890581.2340044-.1993969l.8402857-.1942827zm-1.2923382.2658604c.014605.026678.035236.052215.0585.071579l-.24464.7464588-.510554.1278176-.8243325-.7720214c.00114-.00311.004298-.00702.005324-.010225l1.5157074-.1636074zm-1.84543884.1329317.0212725.00511c.00097723.0063-.001726.014426 0 .02045zm.12763687.1278193c.0151261.00471.0311721.010225.0478661.010225.003566 0 .007115.0001628.0106322 0l .69669237.6493163c-.010958-.00311-.025257-.00511-.037227-.00511-.024535 0-.044499.00835-.063818.020452l-.65414893-.6748833zm1.90394037.5214972c.017915.046904.063469.076692.117003.076692.051872 0 .097991-.026966.1170014-.071579l.6062829.1329314-1.1806561.3425521.1435933-.4345817zm-.3882316.0971421-.1276401.3834544c-.00703.0013-.014605.0028-.021273.00511l-.303141-.2811971zm-.6381941.1533821.079774.076692-.1116837-.061354c.0001628-.00324 0-.00692 0-.010225z" fill="#d0d0d0"/></svg>

<?xml version="1.0" encoding="UTF-8" standalone="no"?>
<!-- Created with Inkscape (http://www.inkscape.org/) -->

<svg
   xmlns:dc="http://purl.org/dc/elements/1.1/"
   xmlns:cc="http://creativecommons.org/ns#"
   xmlns:rdf="http://www.w3.org/1999/02/22-rdf-syntax-ns#"
   xmlns:svg="http://www.w3.org/2000/svg"
   xmlns="http://www.w3.org/2000/svg"
   xmlns:sodipodi="http://sodipodi.sourceforge.net/DTD/sodipodi-0.dtd"
   xmlns:inkscape="http://www.inkscape.org/namespaces/inkscape"
   width="16"
   height="16"
   viewBox="0 0 4.2333332 4.2333332"
   version="1.1"
   id="svg8"
   inkscape:version="0.92+devel (f96dc7e339, 2017-07-28, custom)"
   sodipodi:docname="glyph-sage.svg">
  <defs
     id="defs2" />
  <sodipodi:namedview
     id="base"
     pagecolor="#002466"
     bordercolor="#ffffff"
     borderopacity="0.38039216"
     inkscape:pageopacity="1"
     inkscape:pageshadow="2"
     inkscape:zoom="36.415999"
     inkscape:cx="10.094581"
     inkscape:cy="7.9162778"
     inkscape:document-units="px"
     inkscape:current-layer="svg8"
     inkscape:document-rotation="0"
     showgrid="false"
     inkscape:showpageshadow="false"
     borderlayer="true"
     inkscape:window-width="1920"
     inkscape:window-height="1051"
     inkscape:window-x="0"
     inkscape:window-y="0"
     inkscape:window-maximized="1"
     units="px" />
  <metadata
     id="metadata5">
    <rdf:RDF>
      <cc:Work
         rdf:about="">
        <dc:format>image/svg+xml</dc:format>
        <dc:type
           rdf:resource="http://purl.org/dc/dcmitype/StillImage" />
        <dc:title></dc:title>
      </cc:Work>
    </rdf:RDF>
  </metadata>
  <path
     style="opacity:1;fill:#d0d0d0;fill-opacity:1;stroke:none;stroke-width:0.26458332"
     d="m 1.4252911,-1.8e-6 c -0.088233,0 -0.1595481,0.070923 -0.1595481,0.1584947 0,0.03445 0.013107,0.066024 0.03191,0.09203 L 0.89878071,0.7055562 c -0.0159403,-0.0042 -0.0305908,-0.010225 -0.0478629,-0.010225 -0.10729892,0 -0.19677712,0.087786 -0.19677712,0.1942827 0,0.00404 0.005077,0.00627 0.005323,0.010225 L 0.30846081,1.1299112 c -0.0258738,-0.017907 -0.0564793,-0.030676 -0.0904111,-0.030676 -0.088231,0 -0.15954813,0.070921 -0.15954813,0.1584946 0,0.053386 0.0283959,0.099081 0.069137,0.1278176 L 0.06381928,2.5717007 C 0.02493928,2.5927947 -1.5e-8,2.6371027 -1.5e-8,2.6841806 c 0,0.068649 0.058475495,0.1227066 0.127638495,0.1227066 0.003663,0 0.007066,3.257e-4 0.0106322,0 L 1.0104676,3.6913885 c -7.81e-5,0.00179 0,0.0033 0,0.00511 0,0.068649 0.053156,0.1278176 0.1223192,0.1278176 0.024535,0 0.049819,-0.00835 0.069137,-0.020452 l 0.4786459,0.2505242 c -9.784e-4,0.00713 -0.00532,0.013058 -0.00532,0.020452 0,0.087573 0.071317,0.1584947 0.1595481,0.1584947 0.082605,0 0.1459037,-0.063349 0.1542288,-0.1431586 L 3.2654074,3.7169517 c 0.02899,0.040101 0.079435,0.066465 0.1329562,0.066465 0.088229,0 0.1595481,-0.07092 0.1595481,-0.1584947 0,-0.037024 -0.015793,-0.070156 -0.037226,-0.097142 L 4.0737851,2.3160641 c 0.088228,0 0.1595481,-0.070921 0.1595481,-0.1584946 0,-0.076838 -0.054537,-0.1388324 -0.1276385,-0.1533821 L 3.9301902,1.4264487 c 0.027533,-0.0228 0.047866,-0.053654 0.047866,-0.09203 0,-0.068645 -0.058479,-0.1227051 -0.1276385,-0.1227051 -0.0059,0 -0.010274,0.00433 -0.015956,0.00511 L 3.0314029,0.2454083 c 0.00114,-0.00663 0.00531,-0.013531 0.00531,-0.02045 0,-0.068649 -0.058477,-0.1227067 -0.1276385,-0.1227067 -0.041187,0 -0.072905,0.020667 -0.095729,0.051128 L 1.5741875,0.1073655 C 1.5524021,0.0455148 1.4950241,-1.8e-6 1.4252765,-1.8e-6 Z m 0.1489111,0.2147346 1.2178834,0.046013 c 0.00801,0.027766 0.024594,0.050325 0.047865,0.066467 l -0.03191,0.1380444 C 2.7510483,0.4784781 2.7058004,0.5166645 2.680402,0.5675118 L 1.3189252,0.7311174 1.4093363,0.311875 c 0.00599,6.511e-4 0.00977,0.00511 0.015956,0.00511 0.06796,0 0.1258263,-0.04288 0.1489111,-0.1022563 z M 2.9622708,0.3374379 3.744055,1.2832933 c -0.00819,0.016526 -0.015956,0.031459 -0.015956,0.051126 0,0.034326 0.014556,0.064423 0.037229,0.086919 L 3.7015083,1.6002826 3.0207707,0.7413442 c 0.014947,-0.027324 0.026592,-0.058749 0.026592,-0.09203 0,-0.083359 -0.053026,-0.1520274 -0.1276385,-0.1789449 l 0.02659,-0.1278176 c 0.00549,-0.00177 0.010844,-0.00262 0.015956,-0.00511 z m -1.6167553,0.025564 -0.085092,0.3732293 -0.26059474,0.030677 c -0.001465,-0.00189 -0.003698,-0.00329 -0.005311,-0.00511 L 1.3455253,0.3630024 Z M 2.6857213,0.787359 2.2921687,2.3109516 c -0.012325,0.00278 -0.025695,0.00565 -0.037227,0.010225 L 1.2444689,1.1810386 1.7177955,1.1299128 c 0.021253,0.038588 0.064251,0.066465 0.1116837,0.066465 0.069161,0 0.1223207,-0.059171 0.1223207,-0.1278192 0,-0.00948 -0.00329,-0.016679 -0.00532,-0.025564 l 0.680738,-0.2505211 0.0585,-0.00511 z M 2.3932153,0.818034 1.9198887,0.9918681 c -0.022969,-0.027329 -0.05175,-0.046015 -0.09041,-0.046015 -0.069163,0 -0.1276385,0.054058 -0.1276385,0.1227034 0,0.00169 -6.35e-5,0.00347 0,0.00511 L 1.2338334,1.1299112 1.2710607,0.945852 2.3932153,0.8180328 Z M 2.8984516,0.8435973 3.6376907,1.7843402 3.4834603,2.2138094 2.5580828,2.4285457 c -0.013661,-0.02497 -0.031861,-0.042724 -0.053184,-0.061354 z M 1.2072415,0.9560772 1.1753319,1.1043483 1.0583288,0.9714165 1.2072415,0.9560788 Z m -0.50523625,0.051129 c 0.009444,0.011365 0.0201213,0.021722 0.0319114,0.030677 l -0.026592,0.1482679 -0.33505103,0.040902 c -3.2564e-4,-0.00169 3.2564e-4,-0.00345 0,-0.00511 z m 0.13827559,0.071578 c 0.003612,1.628e-4 0.006969,0 0.010632,0 0.003661,0 0.007034,1.628e-4 0.010632,0 l 0.0744567,0.081802 -0.11168532,0.015338 0.0159565,-0.097142 z M 0.98387416,1.2117156 1.1221498,1.3650961 1.0583289,1.6462958 c -0.0665335,0.00295 -0.11700145,0.055943 -0.11700145,0.1227067 0,0.03873 0.0198887,0.069233 0.0478647,0.09203 L 0.56904903,2.4950108 0.81368891,1.2321659 Z m -0.28718664,0.030677 -0.26591245,1.375323 c -0.047148,0.00938 -0.0841572,0.041081 -0.10636758,0.081803 l -0.0744531,-0.015338 c 0,-0.051486 -0.0295097,-0.098723 -0.0744563,-0.1175925 l 0.0638176,-1.1554775 c 0.0706545,-0.00964 0.12324233,-0.062802 0.13295785,-0.1329302 l 0.32441396,-0.03579 z m 0.46800888,0.178945 0.9466517,1.0583337 c -0.00182,0.00661 -0.00407,0.013628 -0.00532,0.020451 L 0.57436497,2.6637309 c -0.009883,-0.00982 -0.0197029,-0.01858 -0.0319096,-0.025564 L 1.0317337,1.886595 c 0.010486,0.00283 0.020519,0.00511 0.03191,0.00511 0.069161,0 0.1276385,-0.054057 0.1276385,-0.122705 0,-0.049083 -0.032838,-0.092279 -0.074456,-0.1124815 l 0.047864,-0.2351833 z m 2.6484972,0.030675 c 0.00332,9.785e-4 0.00721,-8.123e-4 0.010632,0 L 3.9674208,1.9428349 3.7440518,1.6514084 3.8131888,1.4520131 Z M 3.674918,1.8354675 3.8982854,2.1166673 3.5472796,2.1984717 Z M 3.9142402,2.2751619 3.409004,3.3743995 3.419636,2.6892934 c 0.053394,-0.010844 0.095729,-0.056276 0.095729,-0.1124798 0,-0.045571 -0.030685,-0.083179 -0.069137,-0.1022531 L 3.483456,2.3774165 3.914236,2.2751618 Z M 3.4249588,2.392756 3.3983688,2.459221 c -0.064717,0 -0.1170031,0.053361 -0.1170031,0.1175925 0,0.053653 0.035321,0.099057 0.085092,0.1124798 l -0.015956,0.7822482 c -0.039022,0.011935 -0.070474,0.042166 -0.09041,0.076692 L 2.5633989,3.3948498 c 0,-0.068645 -0.058479,-0.122705 -0.1276401,-0.122705 -0.067331,0 -0.1247777,0.051463 -0.1276385,0.117594 L 2.1379351,3.4306394 2.3506654,2.7864356 C 2.4670383,2.783863 2.5644621,2.6973775 2.5846698,2.5870387 L 3.4249555,2.392756 Z M 2.1326206,2.6586164 c 0.014605,0.026678 0.035236,0.052215 0.0585,0.071579 L 1.9464806,3.4766542 1.4359266,3.6044718 0.6115941,2.8324504 c 0.00114,-0.00311 0.004298,-0.00702 0.005324,-0.010225 L 2.1326255,2.658618 Z m -1.84543884,0.1329317 0.0212725,0.00511 c 9.7723e-4,0.0063 -0.001726,0.014426 0,0.02045 z m 0.12763687,0.1278193 c 0.0151261,0.00471 0.0311721,0.010225 0.0478661,0.010225 0.003566,0 0.007115,1.628e-4 0.0106322,0 L 1.1700093,3.5789087 c -0.010958,-0.00311 -0.025257,-0.00511 -0.037227,-0.00511 -0.024535,0 -0.044499,0.00835 -0.063818,0.020452 L 0.41481537,2.9193674 Z M 2.318759,3.4408646 c 0.017915,0.046904 0.063469,0.076692 0.117003,0.076692 0.051872,0 0.097991,-0.026966 0.1170014,-0.071579 L 3.1590463,3.578909 1.9783902,3.9214611 2.1219835,3.4868794 Z M 1.9305274,3.5380067 1.8028873,3.9214611 c -0.00703,0.0013 -0.014605,0.0028 -0.021273,0.00511 L 1.4784733,3.645374 Z m -0.6381941,0.1533821 0.079774,0.076692 -0.1116837,-0.061354 c 1.628e-4,-0.00324 0,-0.00692 0,-0.010225 z"
     id="path14"
     inkscape:connector-curvature="0"
     inkscape:label="#" />
</svg>
